X:124
T: VERDENK MIRS NICHT DASS ICH DICH MEIDE
N: E0716A
O: Europa, Mitteleuropa, Deutschland, Hessen, Odenwald
R: Liebes - Lied, Leid, Klage
M: 3/4
L: 1/8
K: Bb
 | B2d2c2 | d2B2z2 |
B2d2c2 | d2B2z2 |
B2d2f2 | f2e2z2 |
e2d2c2 | c2B2z2 |
B2d2c2 | d2B2z2 |
B2d2c2 | d2B2z2 |
B2d2f2 | f2e2z2 |
e2d2c2 | c2B2z2 |
f2gfed | e4z2 |
e2fedc | d4z2 |
d2edcB | c4z2 |
f2d2c2 | B4z2

@@@ Tune index: 4437
